front-end/src/app assetrs/editorIcons/3dmodel.svg

<svg id="_x31_px" enable-background="new 0 0 24 24" height="512" viewBox="0 0 24 24" width="512" xmlns="http://www.w3.org/2000/svg"><path d="m12 24c-.068 0-.136-.014-.199-.042l-11.5-5c-.183-.079-.301-.259-.301-.458v-13c0-.276.224-.5.5-.5s.5.224.5.5v12.672l11 4.782 11-4.782v-12.672c0-.276.224-.5.5-.5s.5.224.5.5v13c0 .199-.118.379-.301.458l-11.5 5c-.063.028-.131.042-.199.042z"/><path d="m12 11c-.068 0-.136-.014-.199-.042l-11.5-5c-.183-.079-.301-.259-.301-.458s.118-.379.301-.458l11.5-5c.127-.056.271-.056.398 0l11.5 5c.183.079.301.259.301.458s-.118.379-.301.458l-11.5 5c-.063.028-.131.042-.199.042zm-10.246-5.5 10.246 4.455 10.246-4.455-10.246-4.455z"/><path d="m23.5 19c-.066 0-.135-.013-.199-.042l-.917-.399c-.254-.11-.369-.405-.259-.658.108-.253.406-.368.657-.259l.917.399c.254.11.369.405.259.658-.081.189-.266.301-.458.301z"/><path d="m20.353 17.631c-.066 0-.135-.013-.199-.042l-1.487-.646c-.253-.11-.369-.405-.26-.658.11-.253.407-.37.658-.259l1.487.646c.253.11.369.405.26.658-.083.189-.267.301-.459.301zm-3.718-1.616c-.066 0-.135-.013-.199-.042l-1.487-.646c-.253-.11-.369-.405-.26-.658.11-.253.407-.37.658-.259l1.487.646c.253.11.369.405.26.658-.082.189-.267.301-.459.301z"/><path d="m12.917 14.399c-.066 0-.135-.013-.199-.042l-.718-.312-.718.312c-.251.11-.549-.006-.657-.259-.11-.253.005-.548.259-.658l.917-.399c.127-.056.271-.056.398 0l.917.399c.254.11.369.405.259.658-.081.189-.266.301-.458.301z"/><path d="m3.647 17.631c-.192 0-.377-.112-.459-.301-.109-.253.007-.548.26-.658l1.487-.646c.252-.111.548.006.658.259.109.253-.007.548-.26.658l-1.486.647c-.065.028-.133.041-.2.041zm3.718-1.616c-.192 0-.377-.112-.459-.301-.109-.253.007-.548.26-.658l1.487-.646c.252-.11.548.006.658.259.109.253-.007.548-.26.658l-1.487.646c-.064.029-.132.042-.199.042z"/><path d="m.5 19c-.192 0-.377-.112-.458-.301-.11-.253.005-.547.259-.658l.917-.399c.251-.109.548.006.657.259.11.253-.005.548-.259.658l-.917.399c-.064.029-.133.042-.199.042z"/><path d="m12 24c-.276 0-.5-.224-.5-.5v-13c0-.276.224-.5.5-.5s.5.224.5.5v13c0 .276-.224.5-.5.5z"/><path d="m12 9.5c-.276 0-.5-.224-.5-.5v-1.5c0-.276.224-.5.5-.5s.5.224.5.5v1.5c0 .276-.224.5-.5.5zm0-3.5c-.276 0-.5-.224-.5-.5v-1.5c0-.276.224-.5.5-.5s.5.224.5.5v1.5c0 .276-.224.5-.5.5zm0-3.5c-.276 0-.5-.224-.5-.5v-1.5c0-.276.224-.5.5-.5s.5.224.5.5v1.5c0 .276-.224.5-.5.5z"/></svg>

<svg xmlns="http://www.w3.org/2000/svg" viewBox="0 0 24 24" width="24" height="24">
	<style>
		tspan { white-space:pre }
		.shp0 { fill: #3f51b5 } 
	</style>
	<path id="Layer" fill-rule="evenodd" class="shp0" d="M0.32 18.97C0.23 18.93 0.16 18.88 0.1 18.8C0.04 18.71 0 18.61 0 18.5L0 5.5C0 5.29 0.14 5.1 0.33 5.03L11.78 0.05C11.84 0.02 11.92 0 12 0C12.08 0 12.16 0.02 12.22 0.05L23.67 5.03C23.86 5.1 24 5.29 24 5.5L24 18.5C24 18.61 23.96 18.71 23.9 18.8C23.84 18.88 23.77 18.93 23.68 18.97L12.22 23.95C12.16 23.98 12.08 24 12 24C11.92 24 11.84 23.98 11.78 23.95L0.32 18.97ZM22.27 18.49C22.1 18.35 22.03 18.11 22.12 17.9C22.23 17.65 22.53 17.53 22.78 17.64L23 17.74L23 6.26L12.5 10.83L12.5 13.17L13.12 13.44C13.37 13.55 13.48 13.85 13.38 14.1C13.29 14.29 13.11 14.4 12.92 14.4C12.85 14.4 12.78 14.39 12.72 14.36L12.5 14.26L12.5 22.74L22.27 18.49ZM1 6.26L1 17.74L1.22 17.64C1.47 17.53 1.77 17.65 1.88 17.9C1.97 18.11 1.9 18.35 1.73 18.49L11.5 22.74L11.5 14.26L11.28 14.36C11.03 14.47 10.73 14.35 10.63 14.1C10.52 13.84 10.63 13.55 10.88 13.44L11.5 13.17L11.5 10.83L1 6.26ZM1.75 5.5L12 9.96L22.25 5.5L12.5 1.26L12.5 2C12.5 2.28 12.28 2.5 12 2.5C11.72 2.5 11.5 2.28 11.5 2L11.5 1.26L1.75 5.5ZM20.15 17.59L18.67 16.94C18.41 16.83 18.3 16.54 18.41 16.28C18.52 16.03 18.81 15.91 19.07 16.03L20.55 16.67C20.8 16.78 20.92 17.08 20.81 17.33C20.73 17.52 20.55 17.63 20.35 17.63C20.29 17.63 20.22 17.62 20.15 17.59ZM16.64 16.02C16.57 16.02 16.5 16 16.44 15.97L14.95 15.33C14.7 15.22 14.58 14.92 14.69 14.67C14.8 14.42 15.1 14.3 15.35 14.41L16.83 15.06C17.09 15.17 17.2 15.46 17.09 15.71C17.01 15.9 16.83 16.02 16.64 16.02ZM3.19 17.33C3.08 17.08 3.2 16.78 3.45 16.67L4.93 16.03C5.19 15.91 5.48 16.03 5.59 16.29C5.7 16.54 5.59 16.83 5.33 16.94L3.85 17.59C3.78 17.62 3.71 17.63 3.65 17.63C3.46 17.63 3.27 17.52 3.19 17.33ZM7.37 16.02C7.17 16.02 6.99 15.9 6.91 15.71C6.8 15.46 6.91 15.17 7.17 15.06L8.65 14.41C8.91 14.3 9.2 14.42 9.31 14.67C9.42 14.92 9.3 15.22 9.05 15.33L7.56 15.97C7.5 16 7.43 16.02 7.37 16.02ZM12 9.5C11.72 9.5 11.5 9.28 11.5 9L11.5 7.5C11.5 7.22 11.72 7 12 7C12.28 7 12.5 7.22 12.5 7.5L12.5 9C12.5 9.28 12.28 9.5 12 9.5ZM12 6C11.72 6 11.5 5.78 11.5 5.5L11.5 4C11.5 3.72 11.72 3.5 12 3.5C12.28 3.5 12.5 3.72 12.5 4L12.5 5.5C12.5 5.78 12.28 6 12 6Z" />
</svg>
